Obsidian-SemiLight/actions/16s/escape-direction-all.svg

<svg viewBox="0 0 16 16" xmlns="http://www.w3.org/2000/svg"><path d="m2 2v12h12v-12zm.99975.99975h9.99975v9.99975h-9.99975z" fill="#4d4d4d"/><path d="m7 2v5.0019531h2v-5.0019531zm2 5.0019531v2.0039063h5v-2.0039063zm0 2.0039063h-2v5.0019526h2zm-2 0v-2.0039063h-5v2.0039063z" fill="#da4453"/><path d="m8 6.005c-1.10475 0-2.00025.8955-2.00025 2.00025s.8955 2.00025 2.00025 2.00025 2.00025-.8955 2.00025-2.00025-.8955-2.00025-2.00025-2.00025m0 .99975c.552 0 .99975.44775.99975.99975s-.44775.99975-.99975.99975-.99975-.44775-.99975-.99975.44775-.99975.99975-.99975" fill="#3daee9"/></svg>

<svg xmlns="http://www.w3.org/2000/svg" viewBox="0 0 16 16">
  <defs id="defs3051">
    <style type="text/css" id="current-color-scheme">
      .ColorScheme-Text {
        color:#4d4d4d;
      }
      .ColorScheme-Highlight {
        color:#3daee9;
      }
      .ColorScheme-NegativeText {
        color:#da4453;
      }
      </style>
  </defs>
  <path 
        style="fill:currentColor;fill-opacity:1;stroke:none"
        d="m 2,2 0,12 12,0 0,-12 z m 0.99975,0.99975 9.99975,0 0,9.99975 -9.99975,0 z"
        class="ColorScheme-Text"
        />
  <path 
     style="fill:currentColor;fill-opacity:1;stroke:none" 
     class="ColorScheme-NegativeText"
        d="M 7 2 L 7 7.0019531 L 9 7.0019531 L 9 2 L 7 2 z M 9 7.0019531 L 9 9.0058594 L 14 9.0058594 L 14 7.0019531 L 9 7.0019531 z M 9 9.0058594 L 7 9.0058594 L 7 14.007812 L 9 14.007812 L 9 9.0058594 z M 7 9.0058594 L 7 7.0019531 L 2 7.0019531 L 2 9.0058594 L 7 9.0058594 z "
        />
  <path
        style="fill:currentColor;fill-opacity:1;stroke:none"
     d="m 8,6.005 c -1.10475,0 -2.00025,0.8955 -2.00025,2.00025 0,1.10475 0.8955,2.00025 2.00025,2.00025 1.10475,0 2.00025,-0.8955 2.00025,-2.00025 C 10.00025,6.9005 9.10475,6.005 8,6.005 m 0,0.99975 c 0.552,0 0.99975,0.44775 0.99975,0.99975 C 8.99975,8.5565 8.552,9.00425 8,9.00425 7.448,9.00425 7.00025,8.5565 7.00025,8.0045 7.00025,7.4525 7.448,7.00475 8,7.00475"
        class="ColorScheme-Highlight"
      />
</svg>
